X:36
T:Sherlock Holmes
M:4/4
L:1/16
Q:1/4=90%120
K:Cmaj
C6-CC E4 G4 | cBAB c4-c2 B4 A2 | GFEF G2GG G2 G4 E2 | 
E16 | C6-CC E4 G4 | edcd e4-e2 d4 c2 | Bcdc B2d2 B2d2A2c2 |
Bcdc B2d2 B2d2A2c2 | B2BA G2GF E2G2 c4 | c2d2B2>c2 c8 |

